X: 3444
T: "Engelskan"
R: engelska
Z: .andersson 
M: 2/4
L: 1/16
Q: 86
K: A

V: 1
|: A2ce a2a2 | (ag)bg e2>c2 | d2fd c2ec | (dB)GB (BA)AG | 
A2ce a2a2 | (ag)bg e2>c2 | d2fd c2ec | (dB)GB A4 :| 
|: (Ac)ec cBB2 | (Bd)fd dcc2 | (Ac)ec (dB)GB | A2ce (ga)ga | 
(Ac)ec cBB2 | (Bd)fd dcc2 | (Ac)ec (dB)GB | A2ag a4 :| 

(:musicend:)

(:music:)

